src/img/Up.svg

<svg width="144" height="44" viewBox="0 0 144 44" fill="none" xmlns="http://www.w3.org/2000/svg">
<g clip-path="url(#clip0_323_62732)">
<path d="M82.1877 36.4277H74.9387V43.6767H82.1877V36.4277Z" fill="#FF5500"/>
<path d="M67.6809 36.4277H60.4319H53.1829H45.925V43.6767H53.1829H60.4319H67.6809V36.4277Z" fill="#FF5500"/>
<path d="M38.676 29.1689H31.427V36.4179H38.676V29.1689Z" fill="#FF5500"/>
<path d="M38.676 21.9204H31.427V29.1694H38.676V21.9204Z" fill="#FFA92C"/>
<path d="M21.7558 21.9204H14.5069H7.24898H0V29.1694H7.24898H14.5069H21.7558V21.9204Z" fill="#FFA92C"/>
<path d="M14.5069 14.6714H7.24902V21.9204H14.5069V14.6714Z" fill="#FFA92C"/>
<path d="M14.5069 29.1689H7.24902V36.4179H14.5069V29.1689Z" fill="#FF5500"/>
<path d="M38.676 14.6714H31.427V21.9204H38.676V14.6714Z" fill="#FFA92C"/>
<path d="M38.6758 7.41357H31.4268H24.1689V14.6715H31.4268H38.6758V7.41357Z" fill="#FFF143"/>
<path d="M38.676 0.164551H31.427V7.42244H38.676V0.164551Z" fill="#FFF143"/>
<path d="M38.676 36.4277H31.427V43.6767H38.676V36.4277Z" fill="#FF5500"/>
<path d="M53.1829 29.1689H45.925V36.4179H53.1829V29.1689Z" fill="#FF5500"/>
<path d="M53.1829 21.9204H45.925V29.1694H53.1829V21.9204Z" fill="#FFA92C"/>
<path d="M53.1829 14.6714H45.925V21.9204H53.1829V14.6714Z" fill="#FFA92C"/>
<path d="M53.1829 7.41357H45.925V14.6626H53.1829V7.41357Z" fill="#FFF143"/>
<path d="M53.1829 0.164551H45.925V7.42244H53.1829V0.164551Z" fill="#FFF143"/>
<path d="M67.6809 29.1689H60.4319V36.4179H67.6809V29.1689Z" fill="#FF5500"/>
<path d="M67.6809 21.9204H60.4319V29.1694H67.6809V21.9204Z" fill="#FFA92C"/>
<path d="M67.6809 14.6714H60.4319V21.9204H67.6809V14.6714Z" fill="#FFA92C"/>
<path d="M67.6809 7.41357H60.4319V14.6626H67.6809V7.41357Z" fill="#FFF143"/>
<path d="M67.6809 0.164551H60.4319V7.42244H67.6809V0.164551Z" fill="#FFF143"/>
<path d="M82.1877 29.1689H74.9387V36.4179H82.1877V29.1689Z" fill="#FF5500"/>
<path d="M96.6946 21.9204H89.4367H82.1877H74.9387V29.1694H82.1877H89.4367H96.6946V21.9204Z" fill="#FFA92C"/>
<path d="M96.6855 14.6714H89.4365V21.9204H96.6855V14.6714Z" fill="#FFA92C"/>
<path d="M96.6855 7.41357H89.4365V14.6626H96.6855V7.41357Z" fill="#FFF143"/>
<path d="M82.1877 14.6714H74.9387V21.9204H82.1877V14.6714Z" fill="#FFA92C"/>
<path d="M82.1877 7.41357H74.9387V14.6626H82.1877V7.41357Z" fill="#FFF143"/>
<path d="M89.4367 7.41353H96.6946V0.164551H89.4367H82.1877H74.9387V7.41353H82.1877H89.4367Z" fill="#FFF143"/>
<path d="M129.44 0.00390625H122.164V7.2796H129.44V0.00390625Z" fill="#00F206"/>
<path d="M122.164 7.27979H114.889V14.5555H122.164V7.27979Z" fill="#00F206"/>
<path d="M129.44 7.27979H122.164V14.5555H129.44V7.27979Z" fill="#00F206"/>
<path d="M136.724 7.27979H129.449V14.5555H136.724V7.27979Z" fill="#00F206"/>
<path d="M122.164 14.5645H114.889V21.8401H122.164V14.5645Z" fill="#1CC72B"/>
<path d="M114.888 14.5645H107.613V21.8401H114.888V14.5645Z" fill="#1CC72B"/>
<path d="M129.44 14.5645H122.164V21.8401H129.44V14.5645Z" fill="#1CC72B"/>
<path d="M136.724 14.5645H129.449V21.8401H136.724V14.5645Z" fill="#1CC72B"/>
<path d="M122.164 21.8398H114.889V29.1155H122.164V21.8398Z" fill="#009118"/>
<path d="M129.44 21.8398H122.164V29.1155H129.44V21.8398Z" fill="#009118"/>
<path d="M136.724 21.8398H129.449V29.1155H136.724V21.8398Z" fill="#009118"/>
<path d="M122.164 29.1157H114.889V36.3914H122.164V29.1157Z" fill="#007500"/>
<path d="M129.44 29.1157H122.164V36.3914H129.44V29.1157Z" fill="#007500"/>
<path d="M136.724 29.1157H129.449V36.3914H136.724V29.1157Z" fill="#007500"/>
<path d="M122.164 36.3999H114.889V43.6756H122.164V36.3999Z" fill="#00420E"/>
<path d="M129.44 36.3999H122.164V43.6756H129.44V36.3999Z" fill="#00420E"/>
<path d="M136.724 36.3999H129.449V43.6756H136.724V36.3999Z" fill="#00420E"/>
<path d="M144 14.5645H136.724V21.8401H144V14.5645Z" fill="#1CC72B"/>
</g>
<defs>
<clipPath id="clip0_323_62732">
<rect width="144" height="43.672" fill="white" transform="translate(0 0.00390625)"/>
</clipPath>
</defs>
</svg>

<svg width="144" height="44" fill="none" xmlns="http://www.w3.org/2000/svg"><g clip-path="url(#clip0_323_62732)"><path d="M82.188 36.428h-7.25v7.249h7.25v-7.25zm-14.508 0H45.926v7.249h21.756v-7.25zm-29.004-7.259h-7.249v7.249h7.249v-7.25z" fill="#F50"/><path d="M38.676 21.92h-7.249v7.25h7.249v-7.25zm-16.92 0H0v7.25h21.756v-7.25z" fill="#FFA92C"/><path d="M14.507 14.671H7.249v7.25h7.258v-7.25z" fill="#FFA92C"/><path d="M14.507 29.169H7.249v7.249h7.258v-7.25z" fill="#F50"/><path d="M38.676 14.671h-7.249v7.25h7.249v-7.25z" fill="#FFA92C"/><path d="M38.676 7.414H24.169v7.258h14.507V7.413z" fill="#FFF143"/><path d="M38.676.165h-7.249v7.257h7.249V.165z" fill="#FFF143"/><path d="M38.676 36.428h-7.249v7.249h7.249v-7.25zm14.507-7.259h-7.258v7.249h7.258v-7.25z" fill="#F50"/><path d="M53.183 21.92h-7.258v7.25h7.258v-7.25z" fill="#FFA92C"/><path d="M53.183 14.671h-7.258v7.25h7.258v-7.25z" fill="#FFA92C"/><path d="M53.183 7.414h-7.258v7.249h7.258v-7.25z" fill="#FFF143"/><path d="M53.183.165h-7.258v7.257h7.258V.165z" fill="#FFF143"/><path d="M67.68 29.169h-7.248v7.249h7.249v-7.25z" fill="#F50"/><path d="M67.68 21.92h-7.248v7.25h7.249v-7.25z" fill="#FFA92C"/><path d="M67.68 14.671h-7.248v7.25h7.249v-7.25z" fill="#FFA92C"/><path d="M67.68 7.414h-7.248v7.249h7.249v-7.25z" fill="#FFF143"/><path d="M67.68.165h-7.248v7.257h7.249V.165z" fill="#FFF143"/><path d="M82.188 29.169h-7.25v7.249h7.25v-7.25z" fill="#F50"/><path d="M96.695 21.92H74.939v7.25h21.756v-7.25z" fill="#FFA92C"/><path d="M96.686 14.671h-7.25v7.25h7.25v-7.25z" fill="#FFA92C"/><path d="M96.686 7.414h-7.25v7.249h7.25v-7.25z" fill="#FFF143"/><path d="M82.188 14.671h-7.25v7.25h7.25v-7.25z" fill="#FFA92C"/><path d="M82.188 7.414h-7.25v7.249h7.25v-7.25z" fill="#FFF143"/><path d="M89.437 7.414h7.258V.164H74.939v7.25h14.498z" fill="#FFF143"/><path d="M129.44.004h-7.276V7.28h7.276V.004zm-7.276 7.276h-7.275v7.276h7.275V7.28zm7.276 0h-7.276v7.276h7.276V7.28zm7.284 0h-7.275v7.276h7.275V7.28z" fill="#00F206"/><path d="M122.164 14.565h-7.275v7.275h7.275v-7.275zm-7.276 0h-7.275v7.275h7.275v-7.275zm14.552 0h-7.276v7.275h7.276v-7.275zm7.284 0h-7.275v7.275h7.275v-7.275z" fill="#1CC72B"/><path d="M122.164 21.84h-7.275v7.276h7.275V21.84zm7.276 0h-7.276v7.276h7.276V21.84zm7.284 0h-7.275v7.276h7.275V21.84z" fill="#009118"/><path d="M122.164 29.116h-7.275v7.275h7.275v-7.275zm7.276 0h-7.276v7.275h7.276v-7.275zm7.284 0h-7.275v7.275h7.275v-7.275z" fill="#007500"/><path d="M122.164 36.4h-7.275v7.276h7.275V36.4zm7.276 0h-7.276v7.276h7.276V36.4zm7.284 0h-7.275v7.276h7.275V36.4z" fill="#00420E"/><path d="M144 14.565h-7.276v7.275H144v-7.275z" fill="#1CC72B"/></g><defs><clipPath id="clip0_323_62732"><path fill="#fff" transform="translate(0 .004)" d="M0 0h144v43.672H0z"/></clipPath></defs></svg>
